X: 40736
T: Toss The Feathers
R: reel
M: 4/4
K: Gmajor
D2 ED ADED|ABcA GECE|D2 ED ADED|AddB cAGE|
D3 D ADED|ABcA GE E2|cABG A2 (3ABc|1 d2 ed cAGE:|2 d2 ed cAGB||
Ad (3ddd Ad (3ddd|Ad (3ddd edcd|eaag a3 g|eaag aged|
ef (3gfe afge|f2 ed dcAB|cABG A2 (3ABc|d2 ed cAGB:|

